X: 29015
T: Near The End
R: waltz
M: 3/4
K: Bminor
B,2 FB, FA|B2 AF EA|B2 dB AF|E3F/E/ DC|
B,2 FB, FA|B2 AF AB|D2 CD EA|FG FD B,D|
ED EF ED CA,|B,2 G,B, CD|CA, CE AE|G2F ECA,|B,6|
B,2 FB, FA|B2 AF EA|B2 dB AF|E3F/E/ DC|
B,2 FB, FA|B2 AF AB|D2 CD EA|FG FD B,D|
ED EF ED CA,|B,2 G,B,CD CA,|B,6|
|:B3 A3|B3 A/G/ FD|E3 F/E/ DC CD|B,2 FB, FA|
B,2 FB, FA|FG FD B,D|E3D E/F/A|
B3 A3|B3 A/G/ FD|E3 F/E/ DC CD|
B,2 FB, FA|B,2 FB, FA|FGF ECA,|B,6:|

